X: 00205
T: Bob McQuillen Memorial Waltz
C: Adam Boyce, 2014-2-5
S: Facebook "Remembering MAC" message from Adam Boyce 2014-2-5
%R: waltz
Z: 2020 John Chambers <jc:trillian.mit.edu>
N: The two versions posted to the FB group were combined.
N: A few double bars were introduced to make the phrasing (and key change) clear to readers.
M: 3/4
L: 1/8
K: C
G AB ||\
"C"cd B3 c | AB G>^F (3(G^F=F) | E2 G2 c2 | "G"B4 A_B ||\
=Bd B3 _B | Ac A3 G | "G7"F2 A2 G2 | "C"E3 G AB ||\
cd B3 c |
AB G>^F (3(G^F=F) | "E"E2 ^G2 B2 | "Am"c4 c^c ||\
"F"d2 ^c2 d2 | "(F#d)"g4 d2 | "C"c2 B2 c2 | "A"B4 A2 ||\
"Dm"F2 E2 F2 | "G7"G2 ^F2 G2 |
"C"c6- | "C7"c4 A_B |[|\
[K:F]\
"F"c=B d2 c2 | a2 f3 d | c2 =B2 c2 | "C"E4 EG ||\
e2 ^d2 e2 | "E"=dc =B2 d2 | "F"c6- |
c3 c de ||\
"F"f2 e2 f2 | g2 f3 d | "F7"c2 d2 e2 | "Bb"d4 ^d2 ||\
"C"e^d e3 ^d | =d^c d3 =B | "C7"=c=B c2 A2 | "F"F3 |]

%%newpage

%%sep 1 1 500

